source/img/icon-burger.svg

<svg enable-background="new 0 0 76.166 68.959" height="68.959" viewBox="0 0 76.166 68.959" width="76.166" xmlns="http://www.w3.org/2000/svg"><path d="m71.914 46.042h-67.662c-2.338 0-4.252 1.913-4.252 4.252v3.454c0 2.338 1.914 4.252 4.252 4.252h.956v1.037c0 5.457 4.464 9.922 9.921 9.922h45.908c5.456 0 9.921-4.465 9.921-9.922v-1.037h.956c2.339 0 4.252-1.914 4.252-4.252v-3.454c0-2.339-1.913-4.252-4.252-4.252zm-3.956 12.995c0 3.815-3.104 6.922-6.921 6.922h-45.908c-3.816 0-6.921-3.104-6.921-6.922v-1.037h59.75zm5.208-5.289c0 .679-.573 1.252-1.252 1.252h-67.662c-.679 0-1.252-.573-1.252-1.252v-3.454c0-.679.573-1.252 1.252-1.252h67.662c.679 0 1.252.573 1.252 1.252z"/><path d="m16.162 37.856 5.473 4 5.477-4 5.479 4 5.478-4 5.479 4 5.478-4 5.479 4 5.48-4 5.489 4 6.368-4.644-1.768-2.424-4.6 3.356-5.489-4-5.48 4-5.479-4.001-5.478 4.001-5.479-4.001-5.478 4.001-5.479-4.001-5.476 4.001-5.473-4.002-5.477 4.002-4.593-3.355-1.77 2.422 6.363 4.645z"/><path d="m70.888 31.094c.041-.61.055-2.616.037-3-.683-15.618-15.121-28.094-32.842-28.094-17.72 0-32.159 12.476-32.842 28.094-.017.384-.004 2.389.039 3zm-32.805-28.094c16.031 0 29.15 11.154 29.842 25.094h-59.684c.692-13.94 13.81-25.094 29.842-25.094z"/><circle cx="38.083" cy="15.042" r="2"/><circle cx="30.083" cy="10.083" r="2"/><circle cx="46.083" cy="10.083" r="2"/></svg>

<svg version="1.1" id="Layer_1" xmlns="http://www.w3.org/2000/svg" xmlns:xlink="http://www.w3.org/1999/xlink" x="0px" y="0px" width="76.166px" height="68.959px" viewBox="0 0 76.166 68.959" enable-background="new 0 0 76.166 68.959" xml:space="preserve">
  <g>
    <path d="M71.914,46.042H4.252C1.914,46.042,0,47.955,0,50.294v3.454C0,56.086,1.914,58,4.252,58h0.956v1.037 c0,5.457,4.464,9.922,9.921,9.922h45.908c5.456,0,9.921-4.465,9.921-9.922V58h0.956c2.339,0,4.252-1.914,4.252-4.252v-3.454 C76.166,47.955,74.253,46.042,71.914,46.042z M67.958,59.037c0,3.815-3.104,6.922-6.921,6.922H15.129 c-3.816,0-6.921-3.104-6.921-6.922V58h59.75V59.037z M73.166,53.748c0,0.679-0.573,1.252-1.252,1.252H4.252 C3.573,55,3,54.427,3,53.748v-3.454c0-0.679,0.573-1.252,1.252-1.252h67.662c0.679,0,1.252,0.573,1.252,1.252V53.748z"/>
    <polygon points="16.162,37.856 21.635,41.856 27.112,37.856 32.591,41.856 38.069,37.856 43.548,41.856 49.026,37.856 54.505,41.856 59.985,37.856 65.474,41.856 71.842,37.212 70.074,34.788 65.474,38.144 59.985,34.144 54.505,38.144 49.026,34.143 43.548,38.144 38.069,34.143 32.591,38.144 27.112,34.143 21.636,38.144 16.163,34.142 10.686,38.144 6.093,34.789 4.323,37.211 10.686,41.856 	"/>
    <path d="M70.888,31.094c0.041-0.61,0.055-2.616,0.037-3C70.242,12.476,55.804,0,38.083,0C20.363,0,5.924,12.476,5.241,28.094 c-0.017,0.384-0.004,2.389,0.039,3H70.888z M38.083,3c16.031,0,29.15,11.154,29.842,25.094H8.241C8.933,14.154,22.051,3,38.083,3z"/>
    <circle cx="38.083" cy="15.042" r="2"/>
    <circle cx="30.083" cy="10.083" r="2"/>
    <circle cx="46.083" cy="10.083" r="2"/>
  </g>
</svg>
